X:1
T:Musiciens qui chantez à plaisir
T:Musiciens qui chantez à plaisir
T:Hubert Waelrant
C:Hubert Waelrant
%%score [ 1 2 3 4 ]
L:1/8
Q:1/4=134
M:2/2
K:F
V:1 treble nm="S."
V:2 treble-8 nm="A."
V:3 treble-8 nm="T."
V:4 bass nm="B."
V:1
 z2 d2 ddAA | ccGA B2 GG | AAAF E2 D2 | d2 dd BBGB | AF A2 GG B2 | AAGG GG ^F2 | G8 | d3 c B2 A2 | %8
w: Ce n'est pas jeu, mais|c'est bien cas pour ri- re, mais|c'est bien cas pour ri- re.|Ce n'est pas jeu, mais c'est bien|cas pour ri- re, pour ri-|re, mais c'est bien cas pour ri-|re.|Janne a son ma-|
 G2 F2 B2 z2 | z2 d2 B2 B2 | A4 z4 | A2 AA c2 cc | B2 G2 B2 B2 | A2 z A BBGG | A4 z4 | %15
w: ry ba- tu.|Et quant scays-|tu?|De- re- chief l'a ap- pe-|lé co- cu, co-|cu, co- cu, co- cu, co-|cu.|
 c2 cc G2 G2 | B2 A4 G2 | A2 f2 fe d2- | dcBB A2 c2 | f2 fe d3 c | B2 B2 A4 | G2 G2 ^F2 F2 | %22
w: D'es- tre co- cu, ve-|la le pi-|re. Le po- vre est|* en grant mar- ti- re,|le po- vre est en|grant mar- ti-|re, en grant mar-|
 G4 B4 | z2 d2 ddAA | ccGA B2 GG | AAAF E2 D2 | d2 dd BBGB | AF A2 GG B2 | AAGG GG ^F2 | G8 |] %30
w: ti- re.|Ce n'est pas jeu, mais|c'est bien cas pour ri- re mais|c'est bien cas pour ri- re.|Ce n'est pas jeu, mais c'est bien|cas pour ri- re, pour ri-|re, mais c'est bien cas pour ri-|re.|
V:2
 z4 d2 dd | AAcc BG B2 | A2 z2 g2 gg | ddff g2 g2 | f4 ecde | f2 d2 d2 dd | B4 G4 | z4 d3 c | %8
w: Ce n'est pas|jeu, mais c'est bien cas pour ri-|re. Ce n'est pas|jeu, mais c'est bien cas pour|ri- re, pour ri- re,|mais c'est bien cas pour|ri- re.|Janne a|
 B2 A2 G2 G2 | A2 f2 g2 g2 | f4 z4 | f2 ff f2 ff | d2 e2 g2 e2 | f2 z f ggee | f4 z2 g2 | %15
w: son ma- ry ba-|tu. Et quant scays-|tu?|De- re- chief l'a ap- pe-|lé co- cu, co-|cu, co- cu, co- cu, co-|cu. D'es-|
 ffee e2 c2 | f2 f2 d2 d2 | f2 fe d3 c | B2 d4 c2 | d2 f2 fe d2- | dc B2 c2 d2- | d2 c2 d2 dd | %22
w: tre co- cu, co- cu ve-|la le pi- re.|Le po- vre est en|grant mar- ti-|re, le po- vre est|* en grant mar- ti-|* re. Ce n'est pas|
 G4 g2 gg | d2 z2 d2 dd | AAcc BG B2 | A2 z2 g2 gg | ddff g2 g2 | f4 ecde | f2 d2 d4 | B8 |] %30
w: jeu, ce n'est pas|jeu. Ce n'est pas|jeu, mais c'est bien cas pour ri-|re. Ce n'est pas|jeu, mais c'est bien cas pour|ri- re, mais c'est bien|cas pour ri-|re.|
V:3
 g2 gg ddff | cc e2 d2 d2 | ddAA ccBG | B2 A2 z2 d2 | ddAA ccBG | AcBG A4 | G4 d3 c | B2 A2 G2 F2 | %8
w: Ce n'est pas jeu, mais c'est bien|cas pour ri- re. Ce|n'est pas jeu, mais c'est bien cas pour|ri- re. Ce|n'est pas jeu, mais c'est bien cas pour|ri- * * * *|re. Janne a|son ma- ry ba-|
 G2 d2 B2 c2 | d4 z4 | z2 d2 B2 B2 | A4 A2 AA | B2 cc d2 B2 | c4 z2 c2 | c3 A BBGG | A2 c2 ccGG | %16
w: tu. Et quant scays-|tu?|Car je l'ay|veu. De- re- chief|l'a ap- pe- lé co-|cu, co-|cu, co- cu, co- cu, co-|cu. D'es- tre co- cu, ve-|
 d2 c2 B4 | A4 f2 fe | d3 e f2 a2 | f2 d2 z2 f2 | g2 d2 f2 F2 | G3 A B2 AA | B3 c d2 d2 | %23
w: la le pi-|re. Le po- vre|est en grant mar-|ti- re. Le|po- vre est en|grant mar- ti- re, en|grant mar- ti- re.|
 g2 gg ddff | cc e2 d2 d2 | ddAA ccBG | B2 A2 z2 d2 | ddAA ccBG | AcBG A4 | G8 |] %30
w: Ce n'est pas jeu, mais c'est bien|cas pour ri- re. Ce|n'est pas jeu, mais c'est bien cas pour|ri- re. Ce|n'est pas jeu, mais c'est bien cas pour|ri- * * * *|re.|
V:4
 z8 | z4 G,2 G,G, | D,D,F,F, C,2 G,2 | G,2 D,2 G,2 G,G, | D,D,F,F, C,C,G,G, | F,2 G,2 D,2 D,2 | %6
w: |Ce n'est pas|jeu, mais c'est bien cas pour|ri- re. Ce n'est pas|jeu, mais c'est bien cas pour ri- re,|pour ri- * re.|
 D3 C B,3 A, | G,2 F,2 B,2 z2 | z2 D,2 _E,2 E,2 | D,4 z4 | z2 D,2 G,2 G,2 | F,4 F,2 F,F, | %12
w: Janne a son ma-|ry ba- tu.|Et quant scays-|tu?|Car je l'ay|veu. De- re- chief|
 G,2 C,C, G,2 G,2 | F,4 z2 C,2 | F,3 F, G,G,E,E, | F,2 C,2 C,C,C,C, | B,,2 F,2 G,4 | D,4 z2 B,2 | %18
w: l'a ap- pe- lé co-|cu, co-|cu, co- cu, co- cu, co-|cu. D'es- tre co- cu, ve-|la le pi-|re. Le|
 B,A,G,G, F,2 E,2 | D,2 D,2 B,2 B,A, | G,2 G,2 F,2 D,2 | _E,4 D,4 | D2 DD G,4- | G,4 z4 | %24
w: po- vre est en grant mar-|ti- re. Le po- vre|est en grant mar-|ti- re.|Ce n'est pas jeu.||
 z4 G,2 G,G, | D,D,F,F, C,2 G,2 | G,2 D,2 G,2 G,G, | D,D,F,F, C,C,G,G, | F,2 G,2 D,4 | G,8 |] %30
w: Ce n'est pas|jeu, mais c'est bien cas pour|ri- re. Ce n'est pas|jeu, mais c'est bien cas pour ri- re,|pour ri- *|re.|

